web/packages/design/src/ResourceIcon/assets/foqal.svg

<svg width="72" height="72" viewBox="0 0 72 72" fill="none" xmlns="http://www.w3.org/2000/svg">
<g clip-path="url(#clip0_15940_7363)">
<path d="M70.1106 15.1501C69.9136 15.0024 69.6674 14.9039 69.4704 14.9531C65.2847 15.5933 59.474 18.4494 59.474 18.4494C59.5725 18.4001 59.6217 18.4001 59.671 18.3509C59.671 18.3509 59.0801 18.6956 58.7354 18.8926C55.7808 20.6653 53.9095 22.1426 51.9398 23.9154C46.8185 28.5935 42.1403 33.7148 37.5607 38.9347C37.1175 39.4271 36.5266 39.6733 35.9357 39.6733C35.3447 39.6733 34.7538 39.4271 34.3106 38.9347C29.731 33.7148 25.0529 28.5443 19.9316 23.9154C17.9618 22.0934 16.0413 20.6161 13.136 18.8926C12.7913 18.6956 12.2003 18.3509 12.2003 18.3509C12.2988 18.4001 12.3481 18.4001 12.3973 18.4494C12.3973 18.4494 6.5866 15.5933 2.40091 14.9531C2.15469 14.9039 1.95772 15.0024 1.76074 15.1501C2.0562 14.8054 2.35166 14.5592 2.74561 14.4114C7.02979 12.7372 9.24574 11.9985 13.7269 10.8167C17.1739 9.93028 20.7687 9.8318 24.1665 10.7182C25.9393 11.1614 27.6135 11.8508 28.6969 12.7864C30.6666 14.4607 32.8333 16.4797 34.6553 18.4002C35.0493 18.7941 35.4925 18.9418 35.9849 18.9418C36.4773 18.9911 36.9698 18.7941 37.3145 18.4002C39.1365 16.5289 41.3032 14.4607 43.2729 12.7864C44.3563 11.8508 46.0798 11.1614 47.8033 10.7182C51.2011 9.8318 54.7959 9.93028 58.2429 10.8167C62.7733 11.9493 64.94 12.6879 69.2242 14.4114C69.6182 14.5592 69.9629 14.8546 70.1106 15.1501Z" fill="#4A89AF"/>
<path d="M71.932 29.4308C71.932 29.48 71.932 29.48 71.932 29.5293C71.8335 34.0104 70.9963 37.8514 68.4849 40.3628C61.8371 47.0107 55.2877 53.8063 48.7875 60.6019C46.0792 63.4088 40.9578 60.9466 40.9086 56.5147C40.9086 54.9881 40.8594 53.5601 40.8594 52.329C40.8101 49.7683 41.6965 47.3062 43.223 45.5334C47.7534 40.3136 52.4808 35.2415 57.6021 30.5634C58.3408 29.9232 58.6855 29.6278 59.4241 28.9876C59.8673 28.5444 60.2613 28.249 60.5075 28.052C60.606 28.0027 60.6552 27.9535 60.7045 27.9043C60.7537 27.9043 60.7537 27.855 60.803 27.855C61.5908 27.1656 61.7878 26.1315 61.7878 25.4913C61.8371 24.9004 61.7878 23.6693 60.9999 22.4382C60.9014 22.2905 60.8522 22.1428 60.7537 22.0443C60.6552 21.9458 60.606 21.7981 60.5075 21.6996C60.4582 21.5519 60.3598 21.4534 60.3105 21.3549C60.0643 20.9609 59.8673 20.6162 59.6211 20.2715C59.5719 20.173 59.4734 20.0746 59.4241 19.9761C59.2272 19.6314 59.0302 19.2867 58.784 18.8927C59.0794 18.745 59.3256 18.5972 59.5719 18.4495C63.0681 16.4798 65.3826 15.5934 69.5683 14.9532C69.8145 14.904 70.0115 15.0025 70.2084 15.1502C70.4054 15.38 70.5531 15.6755 70.6516 16.0366C70.6516 16.0858 70.6516 16.0858 70.6516 16.0858C71.0456 17.4647 71.2918 18.8927 71.4888 20.3208C71.538 20.567 71.538 20.764 71.5873 21.0102C71.6365 21.3056 71.6365 21.5519 71.6857 21.7981C71.9812 24.3587 72.0797 26.9686 71.932 29.4308Z" fill="#4A89AF"/>
<path d="M28.7458 45.632C30.2724 47.3555 31.1588 49.8176 31.1095 52.4275C31.1095 53.6094 31.0603 55.0867 31.0603 56.6132C31.011 61.0451 25.8897 63.5073 23.1813 60.7004C16.6812 53.9049 10.1318 47.1093 3.48397 40.4614C1.0218 37.95 0.184663 34.109 0.0369333 29.6279C0.0369333 29.5786 0.0369333 29.5786 0.0369333 29.5294C-0.0615536 27.0179 0.0369287 24.4081 0.332389 21.8474C0.381633 21.5519 0.381639 21.3057 0.430882 21.0595C0.480125 20.8133 0.480124 20.6163 0.529367 20.3701C0.726341 18.942 0.972557 17.514 1.3665 16.1352C1.3665 16.0859 1.3665 16.0859 1.3665 16.0859C1.46499 15.7248 1.61272 15.4293 1.80969 15.1995C2.00667 15.0518 2.25288 14.9533 2.44986 15.0026C6.63555 15.6427 8.94999 16.5291 12.4463 18.4988C12.7417 18.6466 12.988 18.7943 13.2342 18.942C12.988 19.3852 12.791 19.6807 12.594 20.0254C12.5448 20.1239 12.4463 20.2224 12.397 20.3208C12.1508 20.6655 11.9538 21.0103 11.7076 21.4042C11.6584 21.5027 11.5599 21.6504 11.5106 21.7489C11.4122 21.8474 11.3629 21.9459 11.2644 22.0936C11.1659 22.2413 11.1167 22.3398 11.0182 22.4876C10.2303 23.7186 10.2303 24.9497 10.2303 25.5406C10.2796 26.1808 10.4273 27.2149 11.2152 27.9043C11.2644 27.9043 11.2644 27.9536 11.3137 27.9536C11.4122 28.0028 11.4614 28.0521 11.5106 28.1013C11.7569 28.2983 12.1016 28.643 12.594 29.0369C13.3327 29.6278 13.6774 29.9726 14.416 30.6127C19.5373 35.2908 24.2647 40.3629 28.7458 45.632Z" fill="#4A89AF"/>
<path opacity="0.3" d="M71.4894 20.3208C67.7469 22.4875 64.2014 24.9989 60.7543 27.855C61.5422 27.1656 61.7392 26.1315 61.7392 25.4913C61.7884 24.9004 61.7392 23.6693 60.9513 22.4382C60.8528 22.2905 60.8036 22.1428 60.7051 22.0443C60.6066 21.9458 60.5574 21.7981 60.4589 21.6996C60.4096 21.5519 60.3111 21.4534 60.2619 21.3549C60.0157 20.9609 59.8187 20.6162 59.5725 20.2715C59.5233 20.173 59.4248 20.0746 59.3755 19.9761C59.1785 19.6314 58.9816 19.2867 58.7354 18.8927C59.0308 18.745 59.277 18.5972 59.5232 18.4495C63.0195 16.4798 65.334 15.5934 69.5197 14.9532C69.7659 14.904 69.9629 15.0025 70.1598 15.1502C70.406 15.4457 70.5538 15.7411 70.6523 16.0858C71.0462 17.4647 71.3417 18.8927 71.4894 20.3208Z" fill="url(#paint0_linear_15940_7363)"/>
<path opacity="0.3" d="M1.36643 16.0858C1.46492 15.7411 1.61265 15.4457 1.85887 15.1502C2.05584 15.0025 2.25282 14.904 2.49903 14.9532C6.68472 15.5934 8.99916 16.4798 12.4954 18.4495C12.7417 18.5972 12.9879 18.745 13.2833 18.8927C13.0371 19.2867 12.8401 19.6314 12.6432 19.9761C12.5939 20.0746 12.4954 20.173 12.4462 20.2715C12.2 20.6162 12.003 20.9609 11.7568 21.3549C11.7076 21.4534 11.6091 21.5519 11.5598 21.6996C11.5106 21.7981 11.4121 21.9458 11.3136 22.0443C11.2151 22.1428 11.1659 22.2905 11.0674 22.4382C10.2795 23.6693 10.2302 24.9004 10.2795 25.4913C10.2795 26.1315 10.4765 27.1656 11.2644 27.855C7.81732 24.9989 4.2718 22.4875 0.529297 20.3208C0.726271 18.8927 0.972486 17.4647 1.36643 16.0858Z" fill="url(#paint1_linear_15940_7363)"/>
</g>
<defs>
<linearGradient id="paint0_linear_15940_7363" x1="66.8113" y1="23.4231" x2="63.2657" y2="18.2033" gradientUnits="userSpaceOnUse">
<stop stop-opacity="0"/>
<stop offset="1"/>
</linearGradient>
<linearGradient id="paint1_linear_15940_7363" x1="5.60137" y1="23.0784" x2="8.99916" y2="17.5139" gradientUnits="userSpaceOnUse">
<stop stop-opacity="0"/>
<stop offset="1"/>
</linearGradient>
<clipPath id="clip0_15940_7363">
<rect width="72" height="72" fill="white" transform="translate(0 0.000488281)"/>
</clipPath>
</defs>
</svg>

<svg xmlns="http://www.w3.org/2000/svg" width="72" height="72" fill="none" viewBox="0 0 72 72"><g clip-path="url(#a)"><path fill="#4a89af" d="M70.11 15.15c-.196-.148-.443-.246-.64-.197-4.185.64-9.996 3.496-9.996 3.496.099-.049.148-.049.197-.098 0 0-.59.345-.936.542-2.954 1.772-4.825 3.25-6.795 5.022-5.121 4.679-9.8 9.8-14.38 15.02a2.18 2.18 0 0 1-1.624.738 2.18 2.18 0 0 1-1.625-.738c-4.58-5.22-9.258-10.39-14.38-15.02-1.97-1.822-3.89-3.299-6.795-5.022-.345-.197-.936-.542-.936-.542.099.05.148.05.197.098 0 0-5.81-2.856-9.996-3.496-.246-.05-.443.05-.64.197.295-.345.59-.59.985-.739 4.284-1.674 6.5-2.412 10.98-3.594 3.448-.887 7.043-.985 10.44-.099 1.773.443 3.447 1.133 4.53 2.068 1.97 1.675 4.137 3.694 5.96 5.614.393.394.837.542 1.329.542a1.56 1.56 0 0 0 1.33-.542c1.822-1.871 3.988-3.94 5.958-5.614 1.083-.935 2.807-1.625 4.53-2.068 3.398-.886 6.993-.788 10.44.099 4.53 1.132 6.697 1.87 10.981 3.594.394.148.739.444.887.74"/><path fill="#4a89af" d="M71.932 29.43v.1c-.099 4.48-.936 8.321-3.447 10.833-6.648 6.648-13.197 13.443-19.697 20.239-2.709 2.807-7.83.345-7.88-4.087 0-1.527-.049-2.955-.049-4.186-.049-2.56.837-5.023 2.364-6.796 4.53-5.22 9.258-10.291 14.38-14.97.738-.64 1.082-.935 1.821-1.575.443-.444.837-.739 1.084-.936.098-.05.147-.099.197-.148.049 0 .049-.049.098-.049.788-.69.985-1.724.985-2.364.05-.59 0-1.822-.788-3.053-.099-.147-.148-.295-.246-.394-.099-.098-.148-.246-.246-.344-.05-.148-.148-.247-.198-.345-.246-.394-.443-.739-.689-1.084-.05-.098-.148-.196-.197-.295-.197-.345-.394-.69-.64-1.083.295-.148.542-.296.788-.444 3.496-1.97 5.81-2.856 9.996-3.496.246-.049.444.05.64.197q.296.345.444.887v.049c.394 1.379.64 2.807.837 4.235.049.246.049.443.098.69.05.295.05.54.099.787.295 2.56.394 5.17.246 7.633M28.746 45.632c1.526 1.724 2.413 4.186 2.364 6.796 0 1.181-.05 2.659-.05 4.185-.049 4.432-5.17 6.894-7.879 4.087-6.5-6.795-13.05-13.59-19.697-20.239C1.022 37.95.184 34.11.037 29.628v-.099c-.099-2.511 0-5.12.295-7.682.05-.295.05-.541.099-.788.05-.246.05-.443.098-.689.197-1.428.444-2.856.838-4.235v-.05a2.25 2.25 0 0 1 .443-.886c.197-.147.443-.246.64-.196 4.186.64 6.5 1.526 9.996 3.496.296.148.542.295.788.443-.246.443-.443.739-.64 1.083-.05.099-.148.197-.197.296-.246.345-.443.69-.69 1.083-.049.099-.147.246-.196.345-.099.098-.148.197-.247.345-.098.147-.147.246-.246.394-.788 1.23-.788 2.462-.788 3.053.05.64.197 1.674.985 2.363.05 0 .05.05.099.05.098.049.147.098.197.147.246.197.59.542 1.083.936.739.59 1.083.936 1.822 1.576 5.121 4.678 9.849 9.75 14.33 15.019"/><path fill="url(#b)" d="M71.49 20.32c-3.744 2.169-7.29 4.68-10.737 7.536.788-.69.985-1.724.985-2.364.05-.59 0-1.822-.788-3.053-.098-.147-.147-.295-.246-.394-.098-.098-.148-.246-.246-.344-.05-.148-.148-.247-.197-.345-.246-.394-.443-.739-.69-1.084-.049-.098-.147-.196-.197-.295-.197-.345-.393-.69-.64-1.083a11 11 0 0 0 .788-.444c3.496-1.97 5.811-2.856 9.997-3.496.246-.049.443.05.64.197.246.296.394.591.492.936a25 25 0 0 1 .837 4.235" opacity=".3"/><path fill="url(#c)" d="M1.366 16.086c.099-.345.247-.64.493-.936.197-.148.394-.246.64-.197 4.186.64 6.5 1.527 9.996 3.497.247.147.493.295.788.443-.246.394-.443.738-.64 1.083-.05.099-.148.197-.197.296-.246.344-.443.689-.69 1.083-.048.098-.147.197-.196.345a1.5 1.5 0 0 1-.246.344c-.099.099-.148.247-.247.394a5.03 5.03 0 0 0-.787 3.053c0 .64.197 1.675.984 2.364C7.817 24.999 4.272 22.488.53 20.321c.197-1.428.443-2.856.837-4.235" opacity=".3"/></g><defs><linearGradient id="b" x1="66.811" x2="63.266" y1="23.423" y2="18.203" gradientUnits="userSpaceOnUse"><stop stop-opacity="0"/><stop offset="1"/></linearGradient><linearGradient id="c" x1="5.601" x2="8.999" y1="23.078" y2="17.514" gradientUnits="userSpaceOnUse"><stop stop-opacity="0"/><stop offset="1"/></linearGradient><clipPath id="a"><path fill="#fff" d="M0 0h72v72H0z"/></clipPath></defs></svg>
